app/assets/images/icons/active/sign-out.svg

<?xml version="1.0" encoding="UTF-8" standalone="no"?>
<svg width="32px" height="232px" viewBox="0 0 32 232" version="1.1" xmlns="http://www.w3.org/2000/svg" xmlns:xlink="http://www.w3.org/1999/xlink" xmlns:sketch="http://www.bohemiancoding.com/sketch/ns">
    <title>sign-out</title>
    <description>Created with Sketch (http://www.bohemiancoding.com/sketch)</description>
    <defs></defs>
    <g id="Functions" stroke="none" stroke-width="1" fill="none" fill-rule="evenodd" sketch:type="MSPage">
        <path d="M16.6249868,125.19227 L16.6249868,131.711595 L19.5429033,131.711595 L19.5429033,127.886327 L27.0840504,126.697629 L27.0840504,146.191296 L19.5429033,143.82267 L19.5429033,139.895096 L16.6249868,139.895096 L16.6249868,146.01494 L30,150 L30,123 L16.6249868,125.19227 Z M8.91665203,137.824618 L20.3149169,137.824618 C21.4429419,137.824618 22.3605072,136.920429 22.3605072,135.797986 C22.3605072,134.676518 21.4429419,133.772329 20.3149169,133.772329 L9.0267992,133.772329 L12.8524463,129.97824 C13.6539637,129.191945 13.6539637,127.905814 12.8524463,127.115622 C12.0558463,126.324456 10.7586667,126.324456 9.96009975,127.115622 L2.60089214,134.408574 C2.19767483,134.808055 2,135.331276 2,135.85255 C2,136.375771 2.19767483,136.899968 2.60089214,137.297499 L9.96009975,144.589477 C10.7586667,145.379669 12.0558463,145.379669 12.8524463,144.589477 C13.6539637,143.799285 13.6539637,142.513154 12.8524463,141.726859 L8.91665203,137.824618 Z M8.91665203,137.824618" id="sign-out--lp-blue" fill="#206FAC" sketch:type="MSShapeGroup"></path>
        <path d="M16.6249868,85.1922702 L16.6249868,91.7115947 L19.5429033,91.7115947 L19.5429033,87.8863267 L27.0840504,86.6976291 L27.0840504,106.191296 L19.5429033,103.82267 L19.5429033,99.8950958 L16.6249868,99.8950958 L16.6249868,106.01494 L30,110 L30,83 L16.6249868,85.1922702 Z M8.91665203,97.8246184 L20.3149169,97.8246184 C21.4429419,97.8246184 22.3605072,96.9204287 22.3605072,95.7979864 C22.3605072,94.6765184 21.4429419,93.7723287 20.3149169,93.7723287 L9.0267992,93.7723287 L12.8524463,89.9782397 C13.6539637,89.1919454 13.6539637,87.9058136 12.8524463,87.115622 C12.0558463,86.324456 10.7586667,86.324456 9.96009975,87.115622 L2.60089214,94.4085742 C2.19767483,94.8080546 2,95.3312764 2,95.8525495 C2,96.3757714 2.19767483,96.8999675 2.60089214,97.2974992 L9.96009975,104.589477 C10.7586667,105.379669 12.0558463,105.379669 12.8524463,104.589477 C13.6539637,103.799285 13.6539637,102.513154 12.8524463,101.726859 L8.91665203,97.8246184 Z M8.91665203,97.8246184" id="sign-out--white" fill="#FFFFFF" sketch:type="MSShapeGroup"></path>
        <path d="M16.6249868,45.1922702 L16.6249868,51.7115947 L19.5429033,51.7115947 L19.5429033,47.8863267 L27.0840504,46.6976291 L27.0840504,66.1912959 L19.5429033,63.8226697 L19.5429033,59.8950958 L16.6249868,59.8950958 L16.6249868,66.0149399 L30,70 L30,43 L16.6249868,45.1922702 Z M8.91665203,57.8246184 L20.3149169,57.8246184 C21.4429419,57.8246184 22.3605072,56.9204287 22.3605072,55.7979864 C22.3605072,54.6765184 21.4429419,53.7723287 20.3149169,53.7723287 L9.0267992,53.7723287 L12.8524463,49.9782397 C13.6539637,49.1919454 13.6539637,47.9058136 12.8524463,47.115622 C12.0558463,46.324456 10.7586667,46.324456 9.96009975,47.115622 L2.60089214,54.4085742 C2.19767483,54.8080546 2,55.3312764 2,55.8525495 C2,56.3757714 2.19767483,56.8999675 2.60089214,57.2974992 L9.96009975,64.5894771 C10.7586667,65.3796687 12.0558463,65.3796687 12.8524463,64.5894771 C13.6539637,63.7992855 13.6539637,62.5131536 12.8524463,61.7268594 L8.91665203,57.8246184 Z M8.91665203,57.8246184" id="sign-out--body-grey" fill="#67737B" sketch:type="MSShapeGroup"></path>
        <path d="M16.6249868,5.19227022 L16.6249868,11.7115947 L19.5429033,11.7115947 L19.5429033,7.88632673 L27.0840504,6.6976291 L27.0840504,26.1912959 L19.5429033,23.8226697 L19.5429033,19.8950958 L16.6249868,19.8950958 L16.6249868,26.0149399 L30,30 L30,3 L16.6249868,5.19227022 Z M8.91665203,17.8246184 L20.3149169,17.8246184 C21.4429419,17.8246184 22.3605072,16.9204287 22.3605072,15.7979864 C22.3605072,14.6765184 21.4429419,13.7723287 20.3149169,13.7723287 L9.0267992,13.7723287 L12.8524463,9.97823969 C13.6539637,9.19194544 13.6539637,7.90581358 12.8524463,7.11562196 C12.0558463,6.32445599 10.7586667,6.32445599 9.96009975,7.11562196 L2.60089214,14.4085742 C2.19767483,14.8080546 2,15.3312764 2,15.8525495 C2,16.3757714 2.19767483,16.8999675 2.60089214,17.2974992 L9.96009975,24.5894771 C10.7586667,25.3796687 12.0558463,25.3796687 12.8524463,24.5894771 C13.6539637,23.7992855 13.6539637,22.5131536 12.8524463,21.7268594 L8.91665203,17.8246184 Z M8.91665203,17.8246184" id="sign-out--title-grey" fill="#3A434E" sketch:type="MSShapeGroup"></path>
    </g>
</svg>

<svg width="32" height="232" viewBox="0 0 32 232" xmlns="http://www.w3.org/2000/svg" xmlns:sketch="http://www.bohemiancoding.com/sketch/ns"><title>sign-out</title><g sketch:type="MSPage" fill="none"><path d="M16.625 125.192v6.519h2.918v-3.825l7.541-1.189v19.494l-7.541-2.369v-3.928h-2.918v6.12l13.375 3.985v-27l-13.375 2.192zm-7.708 12.632h11.398c1.128 0 2.046-.904 2.046-2.027 0-1.121-.918-2.026-2.046-2.026h-11.288l3.826-3.794c.802-.786.802-2.072 0-2.863-.797-.791-2.094-.791-2.892 0l-7.359 7.293c-.403.399-.601.923-.601 1.444 0 .523.198 1.047.601 1.445l7.359 7.292c.799.79 2.096.79 2.892 0 .802-.79.802-2.076 0-2.863l-3.936-3.902zm0 0" fill="#206FAC" sketch:type="MSShapeGroup"/><path d="M16.625 85.192v6.519h2.918v-3.825l7.541-1.189v19.494l-7.541-2.369v-3.928h-2.918v6.12l13.375 3.985v-27l-13.375 2.192zm-7.708 12.632h11.398c1.128 0 2.046-.904 2.046-2.027 0-1.121-.918-2.026-2.046-2.026h-11.288l3.826-3.794c.802-.786.802-2.072 0-2.863-.797-.791-2.094-.791-2.892 0l-7.359 7.293c-.403.399-.601.923-.601 1.444 0 .523.198 1.047.601 1.445l7.359 7.292c.799.79 2.096.79 2.892 0 .802-.79.802-2.076 0-2.863l-3.936-3.902zm0 0" fill="#fff" sketch:type="MSShapeGroup"/><path d="M16.625 45.192v6.519h2.918v-3.825l7.541-1.189v19.494l-7.541-2.369v-3.928h-2.918v6.12l13.375 3.985v-27l-13.375 2.192zm-7.708 12.632h11.398c1.128 0 2.046-.904 2.046-2.027 0-1.121-.918-2.026-2.046-2.026h-11.288l3.826-3.794c.802-.786.802-2.072 0-2.863-.797-.791-2.094-.791-2.892 0l-7.359 7.293c-.403.399-.601.923-.601 1.444 0 .523.198 1.047.601 1.445l7.359 7.292c.799.79 2.096.79 2.892 0 .802-.79.802-2.076 0-2.863l-3.936-3.902zm0 0" fill="#67737B" sketch:type="MSShapeGroup"/><path d="M16.625 5.192v6.519h2.918v-3.825l7.541-1.189v19.494l-7.541-2.369v-3.928h-2.918v6.12l13.375 3.985v-27l-13.375 2.192zm-7.708 12.632h11.398c1.128 0 2.046-.904 2.046-2.027 0-1.121-.918-2.026-2.046-2.026h-11.288l3.826-3.794c.802-.786.802-2.072 0-2.863-.797-.791-2.094-.791-2.892 0l-7.359 7.293c-.403.399-.601.923-.601 1.444 0 .523.198 1.047.601 1.445l7.359 7.292c.799.79 2.096.79 2.892 0 .802-.79.802-2.076 0-2.863l-3.936-3.902zm0 0" fill="#3A434E" sketch:type="MSShapeGroup"/></g></svg>
